X:1
T:Title
%%score 1 2 3 4
L:1/8
M:2/2
K:C
V:1 treble nm="Part_1"
V:2 treble-8 nm="Part_2"
V:3 treble-8 nm="Part_3"
V:4 treble-8 nm="Part_4"
V:1
 G8- | G8 | G8 | F6 D2 | E4 D4- | D4 C4- | C4 F4- | F4 G4 | A4 _B4- | B4 _B4 | A4 F4 | G4 F2 G2 | %12
 A8 | z8 | A4 B4 | c8 | c8 | A4 _B4- | B4 G4- | G4 A4 | F4 G4- | G4 c4 | B4 G4- | G2 F2 F2 E2 | %24
 G8 | z8 | z8 | z8 | z8 | G8 | A4 c4- | c4 A4 | B8 | c6 B2 | A4 c4- | c4 c4 | d6 c2 | c4 B4 | %38
 A6 G2 | G8 | F4 G4- | G4 A4 | _B8 | c4 A4- | A4 F4 | G2 _A4 G2 | _B4 A4- | A2 F2 F4- | %48
 F2 E2 E2 D2 | F8 | z8 | z8 | B4 B4 | A4 B4 | c8 | A4 B4- | B4 G4 | A2 c4 B2 | G4 A4 | F6 E2 | %60
 G4 G4- | G4 ^F4 | G8 |] %63
V:2
 d8 | B4 G4 | B4 d4- | d4 d4 | z4 g4 | f8 | f4 c4 | _B2 d4 e2 | f4 d4 | g4 f4- | f4 f4 | d4 G2 d2 | %12
 c2 f3 e f2 | g2 d2 e2 de | f8 | z4 f4- | f4 f4 | e4 f4 | g8 | e4 f4- | f4 d4 | e4 g4- | %22
 g2 f2 d2 B2 | c6 Bc | d4 B4 | A4 d4- | d4 c4 | d8- | d8 | e8 | f8 | g4 z4 | z4 g4- | g4 e4 | f8 | %35
 z4 f4- | f4 d4 | c4 d4- | d4 f4 | e6 d2 | _B4 d4 | e4 f4- | f4 e4 | f8 | z4 f4 | _e4 c2 d2- | %46
 d2 e2 f4- | f2 e2 c2 A2 | B6 AB | c4 f4 | e4 g4- | g2 f2 f4- | f4 e4 | f8- | f4 c4 | d6 g2- | %56
 gf d2 e2 de | f4 c2 d2- | d2 B2 A4- | A4 A4 | G2 B4 c2 | d8 | d8 |] %63
V:3
 G8- | G8 | G8 | D8 | G8 | _B4 A4 | F8 | _B8 | d4 _B4 | d8 | c4 d4 | _B6 A2 | F4 A4 | G8 | F8- | %15
 F8 | z4 c4- | c4 _B4 | G8 | c8 | d4 B4 | c8 | G4 B4 | A8 | G8 | z8 | z8 | z8 | G8 | c8 | c6 d2 | %31
 e4 f4 | d8 | c8 | F8- | F8 | z4 f4- | f4 g4 | (3:2:2f8 e4 | c8 | d4 _B4 | c8 | _B4 G4 | F8 | %44
 f4 d4 | c6 _B2 | G4 F4- | F4 A4 | G8 | F8 | c8 | A4 B4 | G8 | F8 | z4 f4- | f4 d4 | B8 | c4 A4 | %58
 B4 c4 | d8 | B4 G4 | A8 | G8 |] %63
V:4
 d8- | d8 | d4 B4 | A8 | B8 | z4 F4 | A3 _B c2 Bc | d4 G4 | F4 G4- | G4 D4 | F3 E D4 | z4 d4 | %12
 f3 e c3 A | B6 AB | c8- | c8 | F8 | e4 d4- | d4 d4 | c4 F4 | B8 | z4 e4 | d4 G4 | z4 c4 | B4 G4 | %25
 F4 D4 | E8 | D8 | z4 d4 | c8 | F8 | c4 F4 | G8 | z4 c4- | c4 c4 | c8 | _B8 | A4 G3 F | D8 | z8 | %40
 d8 | c4 F4 | z2 _B4 A2 | c8 | F4 _B4 | z2 _e4 d2 | _B4 c4- | c4 F4 | z4 B4 | A2 c4 d2 | e8 | %51
 c4 d4 | B6 AB | c8 | F8 | z4 G4- | G4 G4 | F8 | G4 F4 | D8 | _E8 | D8 | d8 |] %63

